projects/flag-game/flags/Colombia.svg

<svg viewBox="0 0 1000 667" xmlns="http://www.w3.org/2000/svg" xmlns:xlink="http://www.w3.org/1999/xlink"><clipPath id="a"><path d="m0 500h1000v166.71875h-1000zm0 0"/></clipPath><path d="m0 0h1000v333.332031h-1000zm0 0" fill="#fcd116" fill-rule="evenodd"/><path d="m0 333.332031h1000v166.667969h-1000zm0 0" fill="#003893" fill-rule="evenodd"/><g clip-path="url(#a)"><path d="m0 500h1000v166.667969h-1000zm0 0" fill="#ce1126" fill-rule="evenodd"/></g></svg>

<?xml version="1.0" encoding="UTF-8"?>
<svg xmlns="http://www.w3.org/2000/svg" xmlns:xlink="http://www.w3.org/1999/xlink" viewBox="0 0 1000 667" version="1.1">
<defs>
<clipPath id="clip1">
  <path d="M 0 500 L 1000 500 L 1000 666.71875 L 0 666.71875 Z M 0 500 "/>
</clipPath>
</defs>
<g id="surface309">
<path style=" stroke:none;fill-rule:evenodd;fill:rgb(98.822021%,81.959534%,8.627319%);fill-opacity:1;" d="M 0 0 L 1000 0 L 1000 333.332031 L 0 333.332031 Z M 0 0 "/>
<path style=" stroke:none;fill-rule:evenodd;fill:rgb(0%,21.960449%,57.646179%);fill-opacity:1;" d="M 0 333.332031 L 1000 333.332031 L 1000 500 L 0 500 Z M 0 333.332031 "/>
<g clip-path="url(#clip1)" clip-rule="nonzero">
<path style=" stroke:none;fill-rule:evenodd;fill:rgb(80.783081%,6.666565%,14.901733%);fill-opacity:1;" d="M 0 500 L 1000 500 L 1000 666.667969 L 0 666.667969 Z M 0 500 "/>
</g>
</g>
</svg>
